icon-svg/truenas-logo.svg

<?xml version="1.0" encoding="UTF-8" standalone="no"?>
<svg
   id="Livello_1"
   data-name="Livello 1"
   viewBox="0 0 24 24"
   version="1.1"
   width="24"
   height="24"
   xmlns="http://www.w3.org/2000/svg"
   xmlns:svg="http://www.w3.org/2000/svg">
  <path id="Colore_riempimento_1" fill="#44739e" data-name="Colore riempimento 1" class="cls-1"
     d="M 23.81439,3.23438 V 2.95508 H 23.76752 L 23.72064,2.58594 H 23.67572 V 2.44531 H 23.62891 L 23.582,2.21484 H 23.53708 L 23.49014,2.0293 H 23.44333 V 1.93555 L 23.35147,1.89062 23.30466,1.70508 23.21286,1.6582 V 1.56641 L 23.02725,1.42578 V 1.334 L 22.9335,1.28713 22.65625,0.96289 h -0.0918 L 22.42578,0.77734 H 22.332 L 22.28711,0.68555 22.10156,0.63867 22.05469,0.54688 h -0.0918 V 0.5 L 21.77734,0.45312 V 0.40625 L 21.54492,0.36133 V 0.31445 H 21.40625 V 0.26758 L 21.03516,0.2207 V 0.17578 H 20.80469 V 0.12891 H 3.209 C 3.09359,0.23157 2.91231,0.16705 2.74611,0.22266 V 0.26758 L 2.46875,0.31445 V 0.36133 H 2.375 V 0.40625 H 2.23633 V 0.45312 L 2.05078,0.5 V 0.54688 H 1.959 L 1.91211,0.63867 1.72656,0.68555 1.63477,0.82422 H 1.541 L 1.4492,0.96289 H 1.3574 L 1.31053,1.05664 0.98633,1.334 V 1.4258 L 0.84766,1.51955 v 0.0918 L 0.709,1.70508 0.66213,1.89062 0.57033,1.93555 V 2.0293 H 0.52344 L 0.47656,2.21484 H 0.42969 V 2.35352 H 0.38477 V 2.44531 H 0.33789 V 2.58594 H 0.291 V 2.72461 H 0.24609 V 2.95508 H 0.19922 V 3.1875 H 0.15234 v 17.60938 h 0.04688 l 0.04687,0.46289 H 0.291 l 0.04687,0.27929 h 0.0469 l 0.04492,0.23047 h 0.04687 l 0.04688,0.18555 h 0.04687 v 0.09375 l 0.0918,0.04492 0.04689,0.18555 0.13868,0.09375 v 0.09179 l 0.13867,0.09375 v 0.0918 l 0.09179,0.04688 0.23243,0.27734 h 0.09179 l 0.13868,0.18555 0.14062,0.04687 0.04492,0.0918 0.18555,0.04687 0.04687,0.09375 h 0.0918 v 0.04493 l 0.18555,0.04687 v 0.04687 L 2.46877,23.625 v 0.04492 h 0.13867 v 0.04688 l 0.36914,0.04687 v 0.04492 H 3.209 v 0.04688 h 15.6504 a 8.7876,8.7876 0 0 0 1.89843,-0.04688 h 0.27735 v -0.04492 l 0.37109,-0.04687 v -0.04688 h 0.13867 v -0.04687 l 0.23242,-0.04493 v -0.04687 l 0.18555,-0.04687 v -0.04493 h 0.0918 l 0.04687,-0.09375 0.18555,-0.04687 0.04492,-0.0918 0.13867,-0.04687 0.09375,-0.13868 h 0.0918 l 0.04687,-0.09179 0.32422,-0.2793 v -0.0918 l 0.13868,-0.09375 v -0.09179 l 0.13867,-0.09375 0.04687,-0.1836 0.0918,-0.04687 v -0.09375 h 0.04687 l 0.04688,-0.18555 H 23.582 l 0.04688,-0.23047 h 0.04681 v -0.13867 h 0.04492 l 0.04688,-0.37109 h 0.04687 V 20.752 h 0.04688 V 3.23438 Z m -11.10913,1.15551 7.48932,4.50342 -0.06586,0.08655 -3.153,1.87463 C 16.73201,10.72827 16.48158,10.61407 16.24586,10.47382 15.17128,9.83466 14.10078,9.18817 13.02886,8.54431 L 12.70519,8.28705 Z M 11.14832,4.36316 11.20374,4.59094 11.2,4.9104 V 8.26471 C 10.67791,8.58978 10.18816,8.89923 9.69414,9.20135 q -1.35,0.82554 -2.704,1.64417 a 3.61323,3.61323 0 0 1 -0.53271,-0.21 C 5.60538,10.13845 4.76028,9.62874 3.91281,9.12343 l -0.34808,-0.262 z m 0.03192,14.92108 A 1.49193,1.49193 0 0 1 10.92859,19.19055 Q 7.86945,17.387 4.81244,15.57965 C 4.22449,15.23346 3.62787,14.90277 3.03528,14.565 L 2.8,14.372 v -3.83971 c 0.28387,0.16174 0.54181,0.30475 0.796,0.45428 q 2.56824,1.51108 5.135,3.02478 1.23176,0.72675 2.46014,1.4596 l 0.0058,0.24554 q -0.0084,1.78391 -0.0167,3.56775 z M 11.014,13.355 C 10.28518,12.93618 9.55294,12.52358 8.8221,12.10854 L 8.54464,11.85878 c 1.13543,-0.72589 2.27789,-1.39935 3.416,-2.0852 1.02966,0.63806 2.04089,1.26276 3.04871,1.89325 a 1.24174,1.24174 0 0 1 0.20813,0.2146 l 0.0026,0.01922 c -0.831,0.49531 -1.65961,0.99512 -2.49451,1.48346 -0.29138,0.17041 -0.59851,0.31257 -0.89837,0.46766 C 11.55634,13.68573 11.28912,13.51312 11.014,13.355 Z M 21.0967,10.92232 V 14.321 l -8.00543,4.81379 -0.24488,0.14349 c -0.05084,-0.02759 -0.1397,-0.04864 -0.14556,-0.08411 a 2.25348,2.25348 0 0 1 -0.0105,-0.36419 q -4.7e-4,-1.50248 -1.9e-4,-3.005 v -0.4 l 8.36622,-5.0445 0.04364,0.21869 z" />
</svg>

<svg xmlns="http://www.w3.org/2000/svg" data-name="Livello 1" viewBox="0 0 24 24"><path fill="#44739e" d="M23.8144 3.2344V2.955h-.0469l-.0469-.3692h-.0449v-.1406h-.0468l-.0469-.2305h-.045l-.0469-.1855h-.0468v-.0937l-.0918-.045-.0468-.1855-.0918-.0469v-.0918l-.1857-.1406V1.334l-.0937-.0469-.2772-.3242h-.0919l-.1386-.1856h-.0938l-.0449-.0917-.1855-.047-.047-.0917h-.0917V.5l-.1856-.0469V.4063l-.2324-.045V.3145h-.1386v-.047l-.3711-.0468v-.045h-.2305V.129H3.209c-.1154.1027-.2967.0382-.4629.0938v.0449l-.2774.0469v.0468H2.375v.045h-.1387V.453L2.0508.5v.0469H1.959l-.0469.0918-.1855.0468-.0918.1387H1.541L1.4492.963h-.0918l-.0469.0937-.3242.2774v.0918l-.1386.0938v.0917l-.1387.0938-.0469.1855-.0918.045v.0937H.5234l-.0468.1855h-.047v.1387H.3849v.0918h-.047v.1406H.291v.1387H.246v.2305H.1993v.2324h-.047V20.797h.047l.0468.4629H.291l.0469.2793h.0469l.0449.2304h.0469l.0468.1856h.047v.0937l.0917.045.0469.1855.1387.0938v.0917l.1386.0938v.0918l.0918.0469.2325.2773h.0918l.1386.1856.1407.0468.0449.0918.1855.0469.0469.0937h.0918v.045l.1855.0468v.047l.2325.0468v.045h.1386v.0468l.3692.0469v.0449h.2324v.0469h15.6504a8.8 8.8 0 0 0 1.8984-.047h.2774v-.0448l.371-.0469V23.67h.1387v-.0468l.2325-.045v-.0468l.1855-.047v-.0448h.0918l.0469-.0938.1855-.0469.045-.0918.1386-.0468.0938-.1387h.0918l.0468-.0918.3243-.2793v-.0918l.1386-.0938v-.0917l.1387-.0938.0469-.1836.0918-.0469v-.0937h.0468l.047-.1856h.0448l.0469-.2304h.0468v-.1387h.045l.0468-.3711h.0469v-.2773h.0468V3.2344ZM12.7053 4.3899l7.4893 4.5034-.0659.0866-3.153 1.8746c-.2437-.1262-.4941-.2404-.7298-.3807-1.0746-.6391-2.1451-1.2856-3.217-1.9295l-.3237-.2572Zm-1.557-.0267.0554.2277-.0037.3195v3.3543c-.522.325-1.0118.6345-1.5059.9367q-1.35.8255-2.704 1.6441a3.6 3.6 0 0 1-.5327-.21c-.852-.497-1.6971-1.0068-2.5446-1.512l-.348-.262zm.032 14.921a1.5 1.5 0 0 1-.2517-.0936q-3.0591-1.8036-6.1162-3.611c-.588-.3461-1.1845-.6768-1.7771-1.0146L2.8 14.372v-3.8397c.2839.1617.5418.3047.796.4543q2.5682 1.511 5.135 3.0248 1.2318.7267 2.4601 1.4596l.0058.2455zm-.1663-5.9292c-.7288-.4188-1.461-.8314-2.1919-1.2465l-.2775-.2497c1.1355-.726 2.278-1.3994 3.416-2.0852 1.0297.638 2.041 1.2627 3.0488 1.8932a1.24 1.24 0 0 1 .208.2146l.0027.0193c-.831.4953-1.6596.995-2.4945 1.4834-.2914.1704-.5985.3126-.8984.4677-.2709-.166-.538-.3387-.8132-.4968m10.0827-2.4327v3.3987l-8.0054 4.8138-.245.1435c-.0508-.0276-.1396-.0487-.1455-.0841a2.25 2.25 0 0 1-.0105-.3642q-.0004-1.5025-.0002-3.005v-.4l8.3663-5.0445.0436.2187z" class="cls-1" data-name="Colore riempimento 1"/></svg>
